icon-themes/breeze_svg/sw/res/sidebar/pageproppanel/format_L_nomal_24x24.svg

<svg viewBox="0 0 26 26" xmlns="http://www.w3.org/2000/svg"><path d="m6 3v1 17 1h1 13v-1-18h-13zm1 1h12v16 1h-12z" fill="#4d4d4d"/><path d="m9 4v2h-2v1h2v11h-2v1h2v2h1v-2h6v2h1v-2h2v-1h-2v-11h2v-1h-2v-2h-1v2h-6v-2zm1 3h6v11h-6z" fill="#1d99f3"/></svg>

<svg xmlns="http://www.w3.org/2000/svg" viewBox="0 0 26 26">
 <path 
     style="fill:#4d4d4d" 
     d="M 6 3 L 6 4 L 6 21 L 6 22 L 7 22 L 20 22 L 20 21 L 20 3 L 7 3 L 6 3 z M 7 4 L 19 4 L 19 20 L 19 21 L 7 21 L 7 4 z "
     />
 <path 
     style="fill:#1d99f3" 
     d="M 9 4 L 9 6 L 7 6 L 7 7 L 9 7 L 9 18 L 7 18 L 7 19 L 9 19 L 9 21 L 10 21 L 10 19 L 16 19 L 16 21 L 17 21 L 17 19 L 19 19 L 19 18 L 17 18 L 17 7 L 19 7 L 19 6 L 17 6 L 17 4 L 16 4 L 16 6 L 10 6 L 10 4 L 9 4 z M 10 7 L 16 7 L 16 18 L 10 18 L 10 7 z "
     />
</svg>
